!!!COM: MacDowell, Edward
!!!CDT: 1860/12/18/-1908/01/23/
!!!OPR: 12 Etudes
!!!ODT: 1889///-1890///
!!!OTL: Dance of the Gnomes
!!!OPS: Op. 39
!!!ONM: No. 6
!!!OMD: Prestissimo con fuoco
**kern	**kern	**dynam/2
*staff2	*staff1	*staff1
*Ipiano	*Ipiano	*Ipiano
*clefF4	*clefF4	*clefF4
*k[b-e-a-]	*k[b-e-a-]	*k[b-e-a-]
*M2/4	*M2/4	*M2/4
*MM204	*MM204	*MM204
=1-	=1-	=1-
4r	(16E-^\LL	ppp
.	16F\J	.
.	8E-\J)	.
(16C^/LL	4r	.
16D/J	.	.
8C/J)	.	.
=2	=2	=2
4r	(16D^\LL	.
.	16E-\J	.
.	8D\J)	.
(16BBn^/LL	4r	.
16C/J	.	.
8BB/J)	.	.
=3	=3	=3
4r	(16G^\LL	.
.	16A-\J	.
.	8G\J)	.
(16F^\LL	4r	.
16G\J	.	.
8F\J)	.	.
=4	=4	=4
4r	(16E-^\LL	.
.	16F\J	.
.	8E-\J)	.
(16C^/LL	4r	.
16D/J	.	.
8C/J)	.	.
=5	=5	=5
4r	(16D^\LL	.
.	16E-\J	.
.	8D\J)	.
(16BBn^/LL	4r	.
16C/J	.	.
8BB/J)	.	.
=6	=6	=6
4r	(16C^/LL	.
.	16D/J	.
.	8C/J)	.
(16AA-^/LL	4r	.
16BB-/J	.	.
8AA-/J)	.	.
=7	=7	=7
4r	(16GG^/LL	.
.	16AA-/J	.
.	8GG/J)	.
(16DD^/LL	4r	.
16EE-/J	.	.
8DD/J)	.	.
=8	=8	=8
4r	(16GG^/LL	.
.	16AA-/J	.
.	8GG/J)	.
4GGG'/	4r	.
=9	=9	=9
4r	(16E-^\LL	pp
.	16F\J	.
.	8E-\J)	.
(16C^/LL	4r	.
16D/J	.	.
8C/J)	.	.
=10	=10	=10
4r	(16D^\LL	.
.	16E-\J	.
.	8D\J)	.
(16BBn^/LL	4r	.
16C/J	.	.
8BB/J)	.	.
=11	=11	=11
4r	(16G^\LL	.
.	16A-\J	.
.	8G\J)	.
(16F^\LL	4r	.
16G\J	.	.
8F\J)	.	.
=12	=12	=12
4r	(16E-^\LL	.
.	16F\J	.
.	8E-\J)	.
(16C^/LL	4r	.
16D/J	.	.
8C/J)	.	.
=13	=13	=13
4r	(16c^\LL	f
.	16d\J	.
.	8c\J)	.
(16A-\LL	4r	.
16B-\J	.	.
8A-\J)	.	.
=14	=14	=14
4r	(16F^\LL	.
.	16G\J	.
.	8F\J)	.
(16D^\LL	4r	.
16E-\J	.	.
8D\J)	.	.
=15	=15	=15
4r	(16G^\LL	.
.	16A-\J	.
.	8G\J)	.
(16E-^\LL	4r	.
16F\J	.	.
8E-\J)	.	.
=16	=16	=16
4r	(16C^/LL	.
.	16D/J	.
.	8C/J)	.
4CCC'/ 4CC'/	4r	.
=17	=17	=17
4r	(16G\LL	p
.	16An\J	.
.	8G\J)	.
(16GG^/LL	4r	.
16AAn/J	.	.
8GG/J)	.	.
=18	=18	=18
4r	(16D^\LL	.
.	16E-\J	.
.	8D\J)	.
(16D^\LL	4r	.
16E-\J	.	.
8D\J)	.	.
=19	=19	=19
4r	(16G^\LL	.
.	16An\J	.
.	8G\J)	.
(16GG^/LL	4r	.
16AAn/J	.	.
8GG/J)	.	.
=20	=20	=20
4r	(16D^\LL	.
.	16E-\J	.
.	8D\J)	.
(16D^\LL	4r	.
16E-\J	.	.
8D\J)	.	.
=21	=21	=21
4r	(16F#^\LL	.
.	16G\J	.
.	8F#\J)	.
(16D^\LL	4r	.
16E-\J	.	.
8D\J)	.	.
=22	=22	=22
4r	(16F#^\LL	.
.	16G\J	.
.	8F#\J)	.
(16An^\LL	4r	.
16B-\J	.	.
8A\J)	.	.
=23	=23	=23
4r	(16d^\LL	.
.	16e-\J	.
.	8d\J)	.
(16B-^\LL	4r	.
16c\J	.	.
8B-\J)	.	.
=24	=24	=24
4r	(16An^\LL	.
.	16B-\J	.
.	8A\J)	.
(16G^\LL	4r	.
16An\J	.	.
8G\J)	.	.
*	*clefG2	*clefG2
=25	=25	=25
4r	(16g^/LL	mf
.	16an/J	.
.	8g/J)	.
(16G\LL	4r	.
16An\J	.	.
8G\J)	.	.
=26	=26	=26
4r	(16d^/LL	.
.	16e-/J	.
.	8d/J)	.
(16d^\LL	4r	.
16e-\J	.	.
8d\J)	.	.
=27	=27	=27
4r	(16g^/LL	.
.	16an/J	.
.	8g/J)	.
(16G^\LL	4r	.
16An\J	.	.
8G\J)	.	.
=28	=28	=28
4r	(16d^/LL	.
.	16e-/J	.
.	8d/J)	.
(16d^\LL	4r	.
16e-\J	.	.
8d\J)	.	.
=29	=29	=29
4r	(16f#^/LL	.
.	16g/J	.
.	8f#/J)	.
*clefG2	*	*
(16d^/LL	4r	.
16e-/J	.	.
8d/J)	.	.
=30	=30	=30
4r	(16f#^/LL	.
.	16g/J	.
.	8f#/J)	.
16an^/LL	4r	.
16b-/J	.	.
8a/J	.	.
=31	=31	=31
4r	(16dd^\LL	.
.	16ee-\J	.
.	8dd\J)	.
(16bn^\LL	4r	.
16cc\J	.	.
8b\J)	.	.
=32	=32	=32
4r	(16a-^/LL	.
.	16b-/J	.
.	8a-/J)	.
(16g^/LL	4r	.
16a-/J	.	.
8g/J)	.	.
=33	=33	=33
4r	(16e-^/LL	p
.	16f/J	.
.	8e-/J)	.
(16c^/LL	4r	.
16d/J	.	.
8c/J)	.	.
=34	=34	=34
4r	(16d^/LL	.
.	16e-/J	.
.	8d/J)	.
(16Bn/LL	4r	.
16c/J	.	.
8B/J)	.	.
=35	=35	=35
4r	(16g^/LL	.
.	16a-/J	.
.	8g/J)	.
(16f^/LL	4r	.
16g/J	.	.
8f/J)	.	.
=36	=36	=36
4r	(16e-^/LL	.
.	16f/J	.
.	8e-/J)	.
(16c^/LL	4r	.
16d/J	.	.
8c/J)	.	.
=37	=37	=37
4r	(16d^/LL	.
.	16e-/J	.
.	8d/J)	.
(16Bn^/LL	4r	.
16c/J	.	.
8B/J)	.	.
=38	=38	=38
4r	(16c^/LL	.
.	16d/J	.
.	8c/J)	.
(16A-^/LL	4r	.
16B-/J	.	.
8A-/J)	.	.
=39	=39	=39
4r	(16G^/LL	.
.	16A-/J	.
.	8G/J)	.
*clefF4	*	*
(16D^\LL	4r	.
16E-\J)	.	.
8D\J	.	.
=40	=40	=40
4r	(16G^/LL	.
.	16A-/J	.
.	8G/J)	.
4GG'/	4r	.
=41	=41	=41
4r	(16e-^/LL	.
.	16f/J	.
.	8e-/J)	.
(16c^\LL	4r	.
16d\J	.	.
8c\J)	.	.
=42	=42	=42
4r	(16d^/LL	.
.	16e-/J	.
.	8d/J)	.
(16Bn^\LL	4r	.
16c\J	.	.
8B\J)	.	.
=43	=43	=43
4r	(16g^/LL	.
.	16a-/J	.
.	8g/J)	.
(16f^\LL	4r	.
16g\J	.	.
8f\J)	.	.
=44	=44	=44
4r	(16e-^/LL	.
.	16f/J	.
.	8e-/J)	.
(16c^\LL	4r	.
16d\J	.	.
8c\J)	.	.
=45	=45	=45
4r	(16cc^\LL	.
.	16dd\J	.
.	8cc\J)	.
*clefG2	*	*
(16a-^/LL	4r	.
16b-/J	.	.
8a-/J)	.	.
=46	=46	=46
4r	(16f^/LL	.
.	16g/J	.
.	8f/J)	.
(16d^/LL	4r	.
16e-/J	.	.
8d/J)	.	.
=47	=47	=47
4r	(16g^/LL	.
.	16a-/J	.
.	8g/J)	.
(16e-^/LL	4r	.
16f/J	.	.
8e-/J)	.	.
=48	=48	=48
4r	(16c^/LL	.
.	16d/J	.
.	8c/J)	.
*clefF4	*	*
4CC'/ 4C'/	4r	.
=49	=49	=49
*^	*^	*
4r	[2AA-\	2c/ 2cc/	4r	.
[4E-/	.	.	4e-\ 4a-\	.
=50	=50	=50	=50	=50
4E-/]	2AA-\_	2c/ 2cc/	4r	.
[4En/	.	.	4en\ 4a-\	.
=51	=51	=51	=51	=51
4E/]	2AA-\_	2c/ 2cc/	4r	.
[4F/	.	.	4f\ 4a-\	.
=52	=52	=52	=52	=52
4F/]	2AA-\]	2c/ 2cc/	4r	.
4F#/	.	.	4f#\ 4a-\	.
*v	*v	*	*	*
=53	=53	=53	=53
4AA-/	(4.ee-/	4r	.
[4E-\ [4G\ [4d-\	.	[4e-\	.
.	8cc/	.	.
*	*v	*v	*
=54	=54	=54
4E-\] 4G\] 4d-\]	2e-/] 2b-/)	.
4E-\ 4G\ &(4d-\&)	.	.
=55	=55	=55
4r	(16bb-^\LL	.
.	16ccc\J	.
.	8bb-\J)	.
*clefG2	*	*
(16b-^\LL	4r	.
16cc\J	.	.
8b-\J)	.	.
=56	=56	=56
4r	(16e-^/LL	.
.	16f/J	.
.	8e-/J)	.
*clefF4	*	*
(16E-^\LL	4r	.
16F\J	.	.
8E-\J)	.	.
=57	=57	=57
*^	*^	*
4r	[2AA-\	2c/ 2cc/	4r	.
[4E-/	.	.	4e-\ 4a-\	.
=58	=58	=58	=58	=58
4E-/]	2AA-\_	2c/ 2cc/	4r	.
[4En/	.	.	4en\ 4a-\	.
=59	=59	=59	=59	=59
4E/]	2AA-\_	2c/ 2cc/	4r	.
[4F/	.	.	4f\ 4a-\	.
=60	=60	=60	=60	=60
4F/]	2AA-\]	2c/ 2cc/	4r	.
4F#/	.	.	4f#\ 4a-\	.
*v	*v	*	*	*
=61	=61	=61	=61
4GG/	(4.gg/	4r	.
[4Fn\ [4Bn\ [4e-\	.	[4g\	.
.	8ee-/	.	.
*	*v	*v	*
=62	=62	=62
4F\] 4B\] 4e-\]	2g\] 2dd\)	.
4F\ 4Bn\ &(4d\&)	.	.
=63	=63	=63
4r	(16gg^\LL	.
.	16aa-\J	.
.	8gg\J)	.
(16g^\LL	4r	.
16a-\J	.	.
8g\J)	.	.
=64	=64	=64
4r	(16g^/LL	.
.	16a-/J	.
.	8g/J)	.
(16G^\LL	4r	.
16A-\J	.	.
8G\J)	.	.
=65	=65	=65
*^	*^	*
4r	[2C\	2e-/ 2ee-/	4r	.
[4F#/	.	.	4f#\ 4cc\	.
=66	=66	=66	=66	=66
4F#/]	2C\_	2e-/ 2ee-/	4r	.
[4G/	.	.	4g\ 4cc\	.
=67	=67	=67	=67	=67
4G/]	2C\_	2e-/ 2ee-/	4r	.
[4G#/	.	.	4g#\ 4cc\	.
=68	=68	=68	=68	=68
4G#/]	2C\]	2e-/ 2ee-/	4r	.
4An/	.	.	4an\ 4cc\	.
*	*	*v	*v	*
=69	=69	=69	=69
(2B-/	[2FF\ [2C\	(4gg\	f
.	.	8g\L	.
.	.	8dd\J)	.
=70	=70	=70	=70
2A-/)	2FF\] 2C\]	4cc\	.
.	.	&(4gg\&)	.
*v	*v	*	*
=71	=71	=71
8BB-'\ 8B-'\	(16bb-^\LL	ff
.	16ccc\J	.
8r	8bb-\J)	.
*clefG2	*	*
(16b-^\LL	4r	.
16cc\J	.	.
8b-\J)	.	.
=72	=72	=72
4r	(16b-^\LL	.
.	16cc\J	.
.	8b-\J)	.
(16B-^/LL	4r	.
16c/J	.	.
8B-/J)	.	.
=73	=73	=73
4r	(16ee-^\LL	.
.	16ff\J	.
.	8ee-\J)	.
(16e-^/LL	4r	.
16f/J	.	.
8e-/J)	.	.
=74	=74	=74
4r	(16e-^/LL	.
.	16f/J	.
.	8e-/J)	.
*clefF4	*	*
(16E-^\LL	4r	.
16F\J	.	.
8E-\J)	.	.
=75	=75	=75
*^	*^	*
4r	[2AA-\	2c/ 2cc/	4r	.
[4E-/	.	.	4e-\ 4a-\	.
=76	=76	=76	=76	=76
4E-/]	2AA-\_	2c/ 2cc/	4r	.
[4En/	.	.	4en\ 4a-\	.
=77	=77	=77	=77	=77
4E/]	2AA-\_	2c/ 2cc/	4r	.
[4F/	.	.	4f\ 4a-\	.
=78	=78	=78	=78	=78
4F/]	2AA-\]	2c/ 2cc/	4r	.
4F#/	.	.	4f#\ 4a-\	.
*v	*v	*	*	*
=79	=79	=79	=79
4AA-/	(4.ee-/	4r	.
[4E-\ [4G\ [4d-\	.	[4e-\	.
.	8cc/	.	.
*	*v	*v	*
=80	=80	=80
4E-\] 4G\] 4d-\]	2e-/] 2b-/)	.
4E-\ 4G\ &(4d-\&)	.	.
=81	=81	=81
4r	(16bb-^\LL	.
.	16ccc\J	.
.	8bb-\J)	.
*clefG2	*	*
(16b-^\LL	4r	.
16cc\J	.	.
8b-\J)	.	.
=82	=82	=82
4r	(16e-^/LL	.
.	16f/J	.
.	8e-/J)	.
*clefF4	*	*
(16E-^\LL	4r	.
16F\J	.	.
8E-\J)	.	.
=83	=83	=83
*^	*^	*
4r	[2AA-\	2c^/ 2cc^/	4r	.
4E-/	.	.	4e-\ 4a-\	.
=84	=84	=84	=84	=84
4E-/	2AA-\_	2c^/ 2cc^/	4r	.
4En/	.	.	4en\ 4a-\	.
=85	=85	=85	=85	=85
4E-/	2AA-\_	2c^/ 2cc^/	4r	.
[4F/	.	.	4f\ 4a-\	.
=86	=86	=86	=86	=86
4F/]	2AA-\]	2c^/ 2cc^/	4r	.
4F#/	.	.	4f#\ 4a-\	.
*v	*v	*	*	*
=87	=87	=87	=87
4GG/	(4.gg/	4r	.
[4F\ [4B-\ [4e-\	.	[4g\	f
.	8ee-/	.	.
*	*v	*v	*
=88	=88	=88
4F\] 4B-\] 4e-\]	2g\] 2dd\)	.
4F\ 4Bn\ &(4d\&)	.	.
=89	=89	=89
4r	(16gg^\LL	.
.	16aa-\J	.
.	8gg\J)	.
(16g^\LL	4r	.
16a-\J	.	.
8g\J)	.	.
=90	=90	=90
4r	(16g^/LL	.
.	16a-/J	.
.	8g/J)	.
(16G^\LL	4r	.
16A-\J	.	.
8G\J)	.	.
=91	=91	=91
*	*^	*
4CC/ 4C/	2en/ 2een/	4r	.
[4B-\ [4d-\	.	4b-\ 4dd-\	.
=92	=92	=92	=92
4B-\] 4d-\]	2en/ 2een/	4r	.
[4G\ [4B-\ [4d-\	.	4b-\ 4dd-\	.
=93	=93	=93	=93
4G\] 4B-\] 4d-\]	2f/ 2ff/	4r	.
[4F\ [4B-\ [4d-\	.	4b-\ 4dd-\	.
=94	=94	=94	=94
4F\] 4B-\] 4d-\]	2g/ 2gg/	4r	.
4En\ 4B-\ 4d-\	.	4b-\ 4dd-\	.
*	*v	*v	*
=95	=95	=95
4FF/	(4aa-\	ff
[4F\ [4A-\ [4d-\	8a-\L	.
.	8ee-\J)	.
=96	=96	=96
4F\] 4A-\] 4d-\]	(4dd-\	.
4A-\ 4d-\ 4f\	4a-/)	.
=97	=97	=97
4r	(16aa-^\LL	ff
.	16bb-\J	.
.	8aa-\J)	.
*clefG2	*	*
(16a-^/LL	4r	.
16b-/J	.	.
8a-/J)	.	.
=98	=98	=98
4r	(16a-^/LL	.
.	16b-/J	.
.	8a-/J)	.
*clefF4	*	*
(16A-^\LL	4r	.
16B-\J	.	.
8A-\J)	.	.
=99	=99	=99
4r	(16a-^/LL	.
.	16b-/J	.
.	8a-/J)	.
(16A-^\LL	4r	.
16B-\J	.	.
8A-\J)	.	.
*	*clefF4	*clefF4
=100	=100	=100
4r	(16A-^\LL	.
.	16B-\J	.
.	8A-\J)	.
(16AA-^/LL	4r	.
16BB-/J	.	.
8AA-/J)	.	.
=101	=101	=101
4r	(16G^\LL	.
.	16A-\J	.
.	8G\J)	.
(16GG^/LL	4r	.
16AA-/J	.	.
8GG/J)	.	.
=102	=102	=102
4r	(16G^\LL	.
.	16A-\J	.
.	8G\J)	.
(16AA-^/LL	4r	.
16BB--/J	.	.
8AA-/J)	.	.
=103	=103	=103
4r	(16G^\LL	.
.	16A-\J	.
.	8G\J)	.
(16AAn^/LL	4r	.
16BB-/J	.	.
8AA/J)	.	.
=104	=104	=104
4r	(16G^\LL	.
.	16A-\J	.
.	8G\J)	.
(16BB-^/LL	4r	.
16C-/J	.	.
8BB-/J)	.	.
=105	=105	=105
4r	(16G^\LL	.
.	16A-\J	.
.	8G\J)	.
(16BBn^/LL	4r	.
16Cn/J	.	.
8BB/J)	.	.
=106	=106	=106
4r	(16G^\LL	.
.	16A-\J	.
.	8G\J)	.
16C^/LL	4r	.
16D-/J	.	.
8C/J	.	.
=107	=107	=107
4r	(16G^\LL	.
.	16A-\J	.
.	8G\J)	.
(16C#^/LL	4r	.
16Dn/J)	.	.
8C#/J	.	.
=108	=108	=108
4r	(16G^\LL	.
.	16A-\J	.
.	8G\J)	.
(16D^\LL	4r	.
16E-\J	.	.
8D\J)	.	.
=109	=109	=109
4r	(16E-^\LL	ppp
.	16F\J	.
.	8E-\J)	.
(16C^/LL	4r	.
16D/J	.	.
8C/J)	.	.
=110	=110	=110
4r	(16D^\LL	.
.	16E-\J	.
.	8D\J)	.
(16BBn^/LL	4r	.
16C/J	.	.
8BB/J)	.	.
=111	=111	=111
4r	(16G^\LL	.
.	16A-\J	.
.	8G\J)	.
(16F^\LL	4r	.
16G\J	.	.
8F\J)	.	.
=112	=112	=112
4r	(16E-^\LL	.
.	16F\J	.
.	8E-\J)	.
(16C^/LL	4r	.
16D/J	.	.
8C/J)	.	.
=113	=113	=113
4r	(16D^\LL	.
.	(16E-\J)	.
.	8D\J)	.
(16BBn^/LL	4r	.
16C/J	.	.
8BB/J)	.	.
=114	=114	=114
4r	(16C^/LL	.
.	16D/J	.
.	8C/J)	.
(16AA-^/LL	4r	.
16BB-/J	.	.
8AA-/J)	.	.
=115	=115	=115
4r	(16GG^/LL	.
.	16AA-/J	.
.	8GG/J)	.
(16DD^/LL	4r	.
16EE-/J	.	.
8DD/J)	.	.
=116	=116	=116
4r	(16GG^/LL	.
.	16AA-/J	.
.	8GG/J)	.
4GGG'/	4r	.
=117	=117	=117
4r	(16E-^\LL	pp
.	16F\J	.
.	8E-\J)	.
(16C^/LL	4r	.
16D/J	.	.
8C/J)	.	.
=118	=118	=118
4r	(16D^\LL	.
.	16E-\J	.
.	8D\J)	.
(16BBn^/LL	4r	.
16C/J	.	.
8BB/J)	.	.
=119	=119	=119
4r	(16G^\LL	.
.	16A-\J	.
.	8G\J)	.
(16F^\LL	4r	.
16G\J	.	.
8F\J)	.	.
=120	=120	=120
4r	16E-^\LL	.
.	16F\J	.
.	8E-\J	.
(16C^/LL	4r	.
16D/J	.	.
8C/J)	.	.
=121	=121	=121
4r	(16c^\LL	f
.	16d\J	.
.	8c\J)	.
(16A-^\LL	4r	.
16B-\J	.	.
8A-\J)	.	.
=122	=122	=122
4r	(16F^\LL	.
.	16G\J	.
.	8F\J)	.
(16D^\LL	4r	.
16E-\J	.	.
8D\J)	.	.
=123	=123	=123
4r	(16G^\LL	.
.	16A-\J	.
.	8G\J)	.
(16E-^\LL	4r	.
16F\J	.	.
8E-\J)	.	.
=124	=124	=124
4r	(16C^/LL	.
.	16D/J	.
.	8C/J)	.
4CCC'/ 4CC'/	4r	.
=125	=125	=125
4r	(16G^\LL	p
.	16An\J	.
.	8G\J)	.
(16GG^/LL	4r	.
16AAn/J	.	.
8GG/J)	.	.
=126	=126	=126
4r	(16D^\LL	.
.	16E-\J)	.
.	&(8D\J&)	.
(16D^\LL	4r	.
16E-\J	.	.
8D\J)	.	.
=127	=127	=127
4r	(16G^\LL	.
.	16An\J	.
.	8G\J)	.
(16GG^/LL	4r	.
16AAn/J	.	.
8GG/J)	.	.
=128	=128	=128
4r	(16D^\LL	.
.	16E-\J	.
.	8D\J)	.
(16D^\LL	4r	.
16E-\J	.	.
8D\J)	.	.
=129	=129	=129
4r	(16F#^\LL	.
.	16G\J	.
.	8F#\J)	.
(16D^\LL	4r	.
16E-\J	.	.
8D\J)	.	.
=130	=130	=130
4r	(16F#^\LL	.
.	16G\J	.
.	8F#\J)	.
(16An^\LL	4r	.
16B-\J	.	.
8A\J)	.	.
=131	=131	=131
4r	(16d^\LL	.
.	16e-\J	.
.	8d\J)	.
(16B-^\LL	4r	.
16c\J	.	.
8B-\J)	.	.
=132	=132	=132
4r	(16An^\LL	.
.	16B-\J	.
.	8A\J)	.
(16G^\LL	4r	.
16An\J	.	.
8G\J)	.	.
*	*clefG2	*clefG2
=133	=133	=133
4r	(16g^/LL	.
.	16an/J	.
.	8g/J)	.
(16G^\LL	4r	.
16An\J	.	.
8G\J)	.	.
=134	=134	=134
4r	(16d^/LL	.
.	16e-/J	.
.	8d/J)	.
(16d\LL	4r	.
16e-^\J	.	.
8d\J)	.	.
=135	=135	=135
4r	(16g^/LL	.
.	16an/J	.
.	8g/J)	.
(16G^\LL	4r	.
16An\J	.	.
8G\J)	.	.
=136	=136	=136
4r	(16d^/LL	.
.	16e-/J	.
.	8d/J)	.
(16d^\LL	4r	.
16e-\J	.	.
8d\J)	.	.
=137	=137	=137
4r	(16f#^/LL	.
.	16g/J	.
.	8f#/J)	.
*clefG2	*	*
(16d^/LL	4r	.
16e-/J	.	.
8d/J)	.	.
=138	=138	=138
4r	(16f#^/LL	.
.	16g/J	.
.	8f#/J)	.
16an^/LL	4r	.
16b-/J	.	.
8a/J	.	.
=139	=139	=139
4r	(16dd^\LL	.
.	16ee-\J	.
.	8dd\J)	.
(16bn^\LL	4r	.
16cc\J	.	.
8b\J)	.	.
=140	=140	=140
4r	16a-^/LL	.
.	16b-/J	.
.	8a-/J	.
(16g^/LL	4r	.
16a-/J	.	.
8g/J)	.	.
=141	=141	=141
4r	(16e-^/LL	.
.	16f/J	.
.	8e-/J)	.
(16c^/LL	4r	.
16d/J	.	.
8c/J)	.	.
=142	=142	=142
4r	(16d^/LL	.
.	16e-/J	.
.	8d/J)	.
(16Bn^/LL	4r	.
16c/J	.	.
8B/J)	.	.
=143	=143	=143
4r	(16g^/LL	.
.	16a-/J	.
.	8g/J)	.
(16f^/LL	4r	.
16g/J	.	.
8f/J)	.	.
=144	=144	=144
4r	(16e-^/LL	.
.	16f/J	.
.	8e-/J)	.
(16c^/LL	4r	.
16d/J	.	.
8c/J)	.	.
=145	=145	=145
4r	(16d^/LL	.
.	16e-/J	.
.	8d/J)	.
(16Bn^/LL	4r	.
16c/J	.	.
8B/J)	.	.
=146	=146	=146
4r	(16c^/LL	.
.	16d/J	.
.	8c/J)	.
(16A-^/LL	4r	.
16B-/J	.	.
8A-/J)	.	.
=147	=147	=147
4r	(16G^/LL	.
.	16A-/J	.
.	8G/J)	.
*clefF4	*	*
(16D^\LL	4r	.
16E-\J)	.	.
8D\J	.	.
=148	=148	=148
4r	(16G^/LL	.
.	16A-/J	.
.	8G/J)	.
4GG'/	4r	.
=149	=149	=149
4r	(16e-^/LL	.
.	16f/J	.
.	8e-/J)	.
*clefG2	*	*
(16c^/LL	4r	.
16d/J	.	.
8c/J)	.	.
=150	=150	=150
4r	(16d^/LL	.
.	16e-/J	.
.	8d/J)	.
(16Bn/LL	4r	.
16c/J	.	.
8B/J)	.	.
=151	=151	=151
4r	(16g^/LL	.
.	16a-/J	.
.	8g/J)	.
(16f^/LL	4r	.
16g/J	.	.
8f/J)	.	.
=152	=152	=152
4r	(16e-^/LL	.
.	16f/J	.
.	8e-/J)	.
(16c^/LL	4r	.
16d/J	.	.
8c/J)	.	.
=153	=153	=153
4r	(16cc^\LL	.
.	16dd\J	.
.	8cc\J)	ff
(16a-^/LL	4r	.
16b-/J	.	.
8a-/J)	.	.
=154	=154	=154
4r	(16f^/LL	.
.	16g/J	.
.	8f/J)	.
(16d^/LL	4r	.
16e-/J	.	.
8d/J)	.	.
=155	=155	=155
4r	(16g^/LL	ff
.	16a-/J	.
.	8g/J)	pp
*clefF4	*	*
4G\	4r	.
=156	=156	=156
2r	2r	.
=157	=157	=157
(16G^/LL	2r	.
16A-/J	.	.
8G/J)	.	.
4GG\	.	.
=158	=158	=158
2r	2r	.
=159	=159	=159
(16C^\LL	2r	.
16Dn\J	.	.
8C\J)	.	.
(16E-^/LL	.	.
16F/J	.	.
8E-/J)	.	.
=160	=160	=160
(16G^\LL	2r	.
16A-\J	.	.
8G\J)	.	.
16Bn^/LL	.	.
16c/J	.	.
8B/J	.	.
=161	=161	=161
2r	(16c^\LL	ppp
.	16d\J	.
.	8c\J)	.
.	(16e-^/LL	.
.	16f/J	.
.	8e-/J)	.
=162	=162	=162
2r	(16g^\LL	.
.	16a-\J	.
.	8g\J)	.
.	(16bn^/LL	.
.	16cc/J	.
.	8b/J)	.
=163	=163	=163
2r	(16cc^\LL	.
.	16dd\J	.
.	8cc\J	.
.	16ee-^/LL)	.
.	16ff/J	.
.	8ee-/J	.
=164	=164	=164
2r	(16gg^\LL	.
.	16aa-\J	.
.	8gg\J)	.
.	(16bbn^/LL	.
.	16ccc/J	.
.	8bb/J)	.
=165	=165	=165
2r	(16cc^\LL	.
.	16dd\J	.
.	8cc\J	.
.	(16ee-^/LL)	.
.	16ff/J	.
.	8ee-/J)	.
=166	=166	=166
2r	(16gg^\LL	.
.	16aa-\J	.
.	8gg\J)	.
.	(16bbn^/LL	.
.	16ccc/J	.
.	8bb/J)	.
=167	=167	=167
2r	8ccc'\	.
.	8r	.
.	4r	.
=168	=168	=168
2r	2r	.
=169	=169	=169
8GG'\ 8D'\ 8Bn'\	8g'\ 8bn'\ 8ff'\ 8gg'\	.
8r	8r	.
4r	4r	.
=170	=170	=170
2r	2r	.
=171	=171	=171
8CC'/ 8C'/	8cc'\ 8ee-'\ 8gg'\ 8ccc'\	ppp
8r	8r	.
4r	4r	.
==	==	==
*-	*-	*-
!!!ENC: Craig Stuart Sapp
!!!END: 2004/09/02/
